X:917
T:The Blooming Meadows. 1st Setting.
B:O'Neill's 917
N:"collected by F. O'Neill."
Z:Transcribed by Tom Keays (htkeays@mailbox.syr.edu)
Z:abc 1.6
M:6/8
R:Jig
L:1/8
K:G
G/F/|D2G G2A|BdB dcAG|F2D DED|F2G AFD|
D2G G2A|BAG ABd|fed dcAF|GAG G2 :|
3d/e/f/|g2d def|g2a bag|f2d ded|f2g afd|
|1 g2d def|g2a bag|fed cAF|GAG G2 :|2g2e f2d|
edc Bcd|fed cAF|GAG G2|]*
